X:3598
T:Cucko Nest,The. GS.010,
T:Cuckoo's Nest,The.aka. GS.010
T:Come Ashore Jolly Tar,aka. GS.010
M:2/2
L:1/8
Q:180
S:George Spencer m/s, Leeds,1831
R:Hornpipe
O:England
A:Leeds
N:Come ashore, Jolly Tar - from 'A Selection of English, Irish and
N:Foreign Airs, adapted for Fife, Violin and German Flute', volumn 1, by
N:James Aird, Glasgow, printed 1775.  The tune is reprinted in Old
N:English Dances by Frank Kidson, the tune as printed is very similar,
N:but though the pitch of the notes is the same, the key signature is
N:Dminor - one flat, rather than the two in this MS.  This version  is
N:Phrygian mode, transposed down a tone.  Or, of course, the key
N:signature could be wrong.
H:1831
Z:vmp.Cherri Graebe
K:D min
DE | FEFD f2 ed | cAGF B2 AG | FEFD CDEC | c2 G2 G2 DE | FEFD f2 ed | cA
GF B2 AG |!
FEFD CDEC | F2 D2D2  :||: "qu"A2 | d2d2 defd | c2 A2 A2 AB |c2c2 cdec |
B2 G
2 G2 A2 |! dcde f2 ed | cAGF B2 AG |
FEFD CDEC | F2D2D2 :||: FG|AFDF AFDF | AFAF D2 EF |! GECE GECE | GEGE
C2DE |
FEFD f2 ed |"this bar added by Ed." cAGF B2 AG | FEFD CDEC | F2 D2 D2 :|
|


